32x32/apps/gramps.svg

<svg height="32" width="32" xmlns="http://www.w3.org/2000/svg"><rect fill="#ac8a78" height="28" rx="1.4" width="28" x="2" y="2"/><path d="m10.5 15v-5.5h12v5.5m-9 7v-6.5h12v6.5" fill="none" stroke="#494949"/><path d="m7.5 22v-6.5h12v6.5" fill="none" stroke="#494949"/><path d="m6 21h3v4h-3zm6 0h3v4h-3zm6 0h3v4h-3zm-3-13h3v4h-3zm-6 6h3v4h-3zm12 0h3v4h-3zm3 7h3v4h-3z" opacity=".2"/><path d="m6 20h3v4h-3zm6 0h3v4h-3zm6 0h3v4h-3zm-3-13h3v4h-3zm-6 6h3v4h-3zm12 0h3v4h-3zm3 7h3v4h-3z" fill="#fff"/><path d="m3.4 2c-.775 0-1.4.625-1.4 1.4v1c0-.775.625-1.4 1.4-1.4h25.2c.775 0 1.4.625 1.4 1.4v-1c0-.775-.625-1.4-1.4-1.4z" fill="#fff" opacity=".2"/><path d="m2 28.6v1c0 .775.625 1.4 1.4 1.4h25.2c.775 0 1.4-.625 1.4-1.4v-1c0 .775-.625 1.4-1.4 1.4h-25.2c-.775 0-1.4-.625-1.4-1.4z" opacity=".2"/></svg>

<svg xmlns="http://www.w3.org/2000/svg" width="32" height="32"><rect fill="#ac8a78" width="28" height="28" x="2" y="2" rx="1.4" ry="1.4"/><path fill="none" stroke="#494949" d="M10.5 15V9.5h12V15M13.5 22v-6.5h12V22"/><path fill="none" stroke="#494949" d="M7.5 22v-6.5h12V22"/><g opacity=".2"><path d="M6 21h3v4H6zM12 21h3v4h-3zM18 21h3v4h-3zM15 8h3v4h-3zM9 14h3v4H9zM21 14h3v4h-3zM24 21h3v4h-3z"/></g><g fill="#fff"><path d="M6 20h3v4H6zM12 20h3v4h-3zM18 20h3v4h-3zM15 7h3v4h-3zM9 13h3v4H9zM21 13h3v4h-3zM24 20h3v4h-3z"/></g><path fill="#fff" opacity=".2" d="M3.4 2C2.625 2 2 2.625 2 3.4v1C2 3.625 2.625 3 3.4 3h25.2c.775 0 1.4.625 1.4 1.4v-1c0-.775-.625-1.4-1.4-1.4H3.4z"/><path opacity=".2" d="M2 28.6v1c0 .775.625 1.4 1.4 1.4h25.2c.775 0 1.4-.625 1.4-1.4v-1c0 .775-.625 1.4-1.4 1.4H3.4c-.775 0-1.4-.625-1.4-1.4z"/></svg>
